svg/color/adahalf.svg

<?xml version="1.0" encoding="UTF-8" ?>
<!DOCTYPE svg PUBLIC "-//W3C//DTD SVG 1.1//EN" "http://www.w3.org/Graphics/SVG/1.1/DTD/svg11.dtd">
<svg width="250pt" height="200pt" viewBox="0 0 250 200" version="1.1" xmlns="http://www.w3.org/2000/svg">
<g id="#feffffff">
<path fill="#feffff" opacity="1.00" d=" M 0.00 0.00 L 250.00 0.00 L 250.00 200.00 L 0.00 200.00 L 0.00 0.00 M 75.68 9.55 C 73.81 12.72 72.40 16.24 72.58 20.00 C 72.66 31.68 72.56 43.36 72.62 55.04 C 72.34 59.34 75.14 64.54 79.94 64.46 C 125.29 64.54 170.64 64.41 215.98 64.51 C 220.13 64.37 224.92 65.32 228.41 62.44 C 231.41 60.32 231.36 56.29 231.44 52.99 C 231.36 42.33 231.37 31.66 231.43 20.99 C 231.33 17.59 231.25 13.78 228.98 11.03 C 226.83 9.13 223.71 9.48 221.06 9.34 C 172.60 9.56 124.14 9.15 75.68 9.55 M 15.28 78.54 C 12.75 80.53 12.58 84.05 12.59 87.01 C 12.71 98.01 12.63 109.01 12.62 120.01 C 12.57 123.52 13.69 126.86 14.80 130.14 C 24.73 132.11 34.88 131.05 44.93 131.31 C 51.20 131.14 57.67 132.01 63.76 130.13 C 66.21 129.25 66.35 126.17 66.46 123.99 C 66.56 111.65 66.37 99.31 66.53 86.97 C 66.43 84.68 66.71 82.25 65.86 80.07 C 63.56 77.20 59.48 76.81 56.05 76.66 C 45.68 76.63 35.32 76.76 24.95 76.62 C 21.68 76.69 18.09 76.58 15.28 78.54 M 73.53 84.95 C 73.48 96.63 73.64 108.31 73.48 119.98 C 73.54 123.13 73.40 126.76 75.73 129.22 C 77.32 130.92 79.90 130.42 81.99 130.62 C 116.23 130.42 150.47 130.77 184.70 130.43 C 186.26 127.54 187.53 124.40 187.35 121.04 C 187.26 109.03 187.35 97.01 187.31 85.00 C 187.64 81.74 185.00 79.10 182.27 77.83 C 178.89 77.16 175.41 77.56 171.99 77.50 C 141.33 77.54 110.67 77.50 80.01 77.51 C 76.03 77.19 73.13 81.22 73.53 84.95 M 79.80 147.41 C 78.47 147.43 76.74 148.03 76.56 149.57 C 75.85 155.34 76.46 161.17 76.29 166.96 C 76.53 175.78 75.76 184.66 76.66 193.45 C 78.78 195.04 81.58 194.59 84.06 194.74 C 95.36 194.60 106.66 194.70 117.96 194.71 C 120.26 194.71 124.26 194.69 123.64 191.30 C 123.88 178.54 123.63 165.76 123.76 152.99 C 123.45 151.15 124.19 148.28 121.81 147.66 C 117.24 146.86 112.57 147.40 107.97 147.30 C 98.58 147.44 89.18 147.05 79.80 147.41 Z" />
</g>
<g id="#afecf4ff">
<path fill="#afecf4" opacity="1.00" d=" M 75.68 9.55 C 124.14 9.15 172.60 9.56 221.06 9.34 C 223.71 9.48 226.83 9.13 228.98 11.03 C 231.25 13.78 231.33 17.59 231.43 20.99 C 231.37 31.66 231.36 42.33 231.44 52.99 C 231.36 56.29 231.41 60.32 228.41 62.44 C 224.92 65.32 220.13 64.37 215.98 64.51 C 170.64 64.41 125.29 64.54 79.94 64.46 C 75.14 64.54 72.34 59.34 72.62 55.04 C 72.56 43.36 72.66 31.68 72.58 20.00 C 72.40 16.24 73.81 12.72 75.68 9.55 M 79.31 12.40 C 75.91 13.10 74.71 16.91 75.02 19.98 C 75.56 31.67 75.16 43.36 75.27 55.05 C 75.30 57.02 75.36 59.56 77.56 60.38 C 81.84 62.02 86.54 61.27 91.02 61.41 C 132.01 61.39 173.01 61.36 214.01 61.43 C 218.78 61.34 224.45 62.23 228.21 58.59 C 229.10 46.78 228.23 34.87 228.62 23.02 C 228.37 20.07 229.41 16.28 226.73 14.17 C 223.88 11.45 219.68 11.58 216.02 11.59 C 195.01 11.90 174.01 11.77 153.00 11.86 C 145.34 11.34 137.69 12.53 130.04 11.71 C 117.71 12.42 105.37 11.53 93.03 11.64 C 88.46 11.71 83.79 11.26 79.31 12.40 Z" />
<path fill="#afecf4" opacity="1.00" d=" M 15.28 78.54 C 18.09 76.58 21.68 76.69 24.95 76.62 C 35.32 76.76 45.68 76.63 56.05 76.66 C 59.48 76.81 63.56 77.20 65.86 80.07 C 66.71 82.25 66.43 84.68 66.53 86.97 C 66.37 99.31 66.56 111.65 66.46 123.99 C 66.35 126.17 66.21 129.25 63.76 130.13 C 57.67 132.01 51.20 131.14 44.93 131.31 C 34.88 131.05 24.73 132.11 14.80 130.14 C 13.69 126.86 12.57 123.52 12.62 120.01 C 12.63 109.01 12.71 98.01 12.59 87.01 C 12.58 84.05 12.75 80.53 15.28 78.54 M 15.73 86.97 C 15.74 97.30 15.80 107.63 15.71 117.95 C 15.60 121.25 16.66 124.40 18.06 127.34 C 30.73 127.39 43.40 127.34 56.07 127.40 C 58.74 127.56 61.11 126.30 63.37 125.06 C 63.40 110.65 63.39 96.24 63.37 81.83 C 60.64 81.08 57.84 80.50 54.99 80.58 C 42.63 80.70 30.27 80.66 17.92 80.61 C 16.65 82.51 15.55 84.61 15.73 86.97 Z" />
<path fill="#afecf4" opacity="1.00" d=" M 73.53 84.95 C 73.13 81.22 76.03 77.19 80.01 77.51 C 110.67 77.50 141.33 77.54 171.99 77.50 C 175.41 77.56 178.89 77.16 182.27 77.83 C 185.00 79.10 187.64 81.74 187.31 85.00 C 187.35 97.01 187.26 109.03 187.35 121.04 C 187.53 124.40 186.26 127.54 184.70 130.43 C 150.47 130.77 116.23 130.42 81.99 130.62 C 79.90 130.42 77.32 130.92 75.73 129.22 C 73.40 126.76 73.54 123.13 73.48 119.98 C 73.64 108.31 73.48 96.63 73.53 84.95 M 77.45 81.76 C 75.23 93.74 77.72 105.95 76.55 118.01 C 76.04 121.24 77.31 124.26 79.37 126.69 C 108.56 126.34 137.76 126.63 166.95 126.53 C 171.63 126.41 176.39 127.05 181.01 126.10 C 183.16 124.88 183.62 122.31 183.52 120.04 C 183.48 110.03 183.38 100.02 183.53 90.01 C 183.60 87.17 183.16 84.36 182.62 81.58 C 178.12 80.71 173.55 80.92 169.01 81.15 C 161.69 80.94 154.37 81.59 147.05 81.38 C 129.72 81.21 112.38 81.76 95.07 81.00 C 89.20 81.38 83.26 80.46 77.45 81.76 Z" />
<path fill="#afecf4" opacity="1.00" d=" M 79.80 147.41 C 89.18 147.05 98.58 147.44 107.97 147.30 C 112.57 147.40 117.24 146.86 121.81 147.66 C 124.19 148.28 123.45 151.15 123.76 152.99 C 123.63 165.76 123.88 178.54 123.64 191.30 C 124.26 194.69 120.26 194.71 117.96 194.71 C 106.66 194.70 95.36 194.60 84.06 194.74 C 81.58 194.59 78.78 195.04 76.66 193.45 C 75.76 184.66 76.53 175.78 76.29 166.96 C 76.46 161.17 75.85 155.34 76.56 149.57 C 76.74 148.03 78.47 147.43 79.80 147.41 Z" />
</g>
<g id="#60cadeff">
<path fill="#60cade" opacity="1.00" d=" M 79.31 12.40 C 83.79 11.26 88.46 11.71 93.03 11.64 C 105.37 11.53 117.71 12.42 130.04 11.71 C 137.69 12.53 145.34 11.34 153.00 11.86 C 174.01 11.77 195.01 11.90 216.02 11.59 C 219.68 11.58 223.88 11.45 226.73 14.17 C 229.41 16.28 228.37 20.07 228.62 23.02 C 228.23 34.87 229.10 46.78 228.21 58.59 C 224.45 62.23 218.78 61.34 214.01 61.43 C 173.01 61.36 132.01 61.39 91.02 61.41 C 86.54 61.27 81.84 62.02 77.56 60.38 C 75.36 59.56 75.30 57.02 75.27 55.05 C 75.16 43.36 75.56 31.67 75.02 19.98 C 74.71 16.91 75.91 13.10 79.31 12.40 M 77.48 16.81 C 77.65 29.22 77.50 41.63 77.53 54.03 C 77.68 55.42 77.35 57.31 78.96 57.97 C 82.20 59.03 85.70 58.48 89.06 58.59 C 133.90 58.49 178.75 58.64 223.60 58.52 C 224.20 57.88 224.81 57.24 225.42 56.61 C 225.46 43.39 225.35 30.16 225.48 16.94 C 223.53 15.70 221.41 14.51 219.00 14.68 C 177.68 14.77 136.36 14.70 95.04 14.72 C 89.17 14.85 82.83 13.73 77.48 16.81 Z" />
<path fill="#60cade" opacity="1.00" d=" M 15.73 86.97 C 15.55 84.61 16.65 82.51 17.92 80.61 C 30.27 80.66 42.63 80.70 54.99 80.58 C 57.84 80.50 60.64 81.08 63.37 81.83 C 63.39 96.24 63.40 110.65 63.37 125.06 C 61.11 126.30 58.74 127.56 56.07 127.40 C 43.40 127.34 30.73 127.39 18.06 127.34 C 16.66 124.40 15.60 121.25 15.71 117.95 C 15.80 107.63 15.74 97.30 15.73 86.97 Z" />
<path fill="#60cade" opacity="1.00" d=" M 77.45 81.76 C 83.26 80.46 89.20 81.38 95.07 81.00 C 112.38 81.76 129.72 81.21 147.05 81.38 C 154.37 81.59 161.69 80.94 169.01 81.15 C 173.55 80.92 178.12 80.71 182.62 81.58 C 183.16 84.36 183.60 87.17 183.53 90.01 C 183.38 100.02 183.48 110.03 183.52 120.04 C 183.62 122.31 183.16 124.88 181.01 126.10 C 176.39 127.05 171.63 126.41 166.95 126.53 C 137.76 126.63 108.56 126.34 79.37 126.69 C 77.31 124.26 76.04 121.24 76.55 118.01 C 77.72 105.95 75.23 93.74 77.45 81.76 Z" />
</g>
<g id="#02a5c2ff">
<path fill="#02a5c2" opacity="1.00" d=" M 77.48 16.81 C 82.83 13.73 89.17 14.85 95.04 14.72 C 136.36 14.70 177.68 14.77 219.00 14.68 C 221.41 14.51 223.53 15.70 225.48 16.94 C 225.35 30.16 225.46 43.39 225.42 56.61 C 224.81 57.24 224.20 57.88 223.60 58.52 C 178.75 58.64 133.90 58.49 89.06 58.59 C 85.70 58.48 82.20 59.03 78.96 57.97 C 77.35 57.31 77.68 55.42 77.53 54.03 C 77.50 41.63 77.65 29.22 77.48 16.81 Z" />
</g>
</svg>

<?xml version="1.0" encoding="utf-8"?>
<!-- Generator: Adobe Illustrator 26.0.3, SVG Export Plug-In . SVG Version: 6.00 Build 0)  -->
<svg version="1.1" id="Layer_1" xmlns="http://www.w3.org/2000/svg" xmlns:xlink="http://www.w3.org/1999/xlink" x="0px" y="0px"
	 viewBox="0 0 250 200" style="enable-background:new 0 0 250 200;" xml:space="preserve">
<style type="text/css">
	.st0{fill:#AFECF4;}
	.st1{fill:#60CADE;}
	.st2{fill:#02A5C2;}
</style>
<g id="_x23_afecf4ff">
	<path class="st0" d="M75.7,9.6c48.5-0.4,96.9,0,145.4-0.2c2.7,0.1,5.8-0.2,7.9,1.7c2.3,2.8,2.4,6.6,2.4,10c-0.1,10.7-0.1,21.3,0,32
		c-0.1,3.3,0,7.3-3,9.4c-3.5,2.9-8.3,1.9-12.4,2.1c-45.3-0.1-90.7,0-136-0.1c-4.8,0.1-7.6-5.1-7.3-9.4c-0.1-11.7,0-23.4,0-35
		C72.4,16.2,73.8,12.7,75.7,9.6 M79.3,12.4c-3.4,0.7-4.6,4.5-4.3,7.6c0.5,11.7,0.1,23.4,0.2,35.1c0,2,0.1,4.5,2.3,5.3
		c4.3,1.6,9,0.9,13.5,1c41,0,82,0,123,0c4.8-0.1,10.4,0.8,14.2-2.8c0.9-11.8,0-23.7,0.4-35.6c-0.2-3,0.8-6.7-1.9-8.9
		c-2.8-2.7-7.1-2.6-10.7-2.6c-21,0.3-42,0.2-63,0.3c-7.7-0.5-15.3,0.7-23-0.1c-12.3,0.7-24.7-0.2-37-0.1
		C88.5,11.7,83.8,11.3,79.3,12.4z"/>
	<path class="st0" d="M15.3,78.5c2.8-2,6.4-1.8,9.7-1.9c10.4,0.1,20.7,0,31.1,0c3.4,0.1,7.5,0.5,9.8,3.4c0.8,2.2,0.6,4.6,0.7,6.9
		c-0.2,12.3,0,24.7-0.1,37c-0.1,2.2-0.2,5.3-2.7,6.1c-6.1,1.9-12.6,1-18.8,1.2c-10-0.3-20.2,0.8-30.1-1.2c-1.1-3.3-2.2-6.6-2.2-10.1
		c0-11,0.1-22,0-33C12.6,84.1,12.8,80.5,15.3,78.5 M15.7,87c0,10.3,0.1,20.7,0,31c-0.1,3.3,0.9,6.5,2.3,9.4c12.7,0.1,25.3,0,38,0.1
		c2.7,0.2,5-1.1,7.3-2.3c0-14.4,0-28.8,0-43.2c-2.7-0.8-5.5-1.3-8.4-1.2c-12.4,0.1-24.7,0.1-37.1,0C16.6,82.5,15.6,84.6,15.7,87z"/>
	<path class="st0" d="M73.5,84.9c-0.4-3.7,2.5-7.8,6.5-7.4c30.7,0,61.3,0,92,0c3.4,0.1,6.9-0.3,10.3,0.3c2.7,1.3,5.4,3.9,5,7.2
		c0,12-0.1,24,0,36c0.2,3.4-1.1,6.5-2.7,9.4c-34.2,0.3-68.5,0-102.7,0.2c-2.1-0.2-4.7,0.3-6.3-1.4c-2.3-2.5-2.2-6.1-2.2-9.2
		C73.6,108.3,73.5,96.6,73.5,84.9 M77.4,81.8c-2.2,12,0.3,24.2-0.9,36.2c-0.5,3.2,0.8,6.2,2.8,8.7c29.2-0.4,58.4-0.1,87.6-0.2
		c4.7-0.1,9.4,0.5,14.1-0.4c2.2-1.2,2.6-3.8,2.5-6.1c0-10-0.1-20,0-30c0.1-2.8-0.4-5.7-0.9-8.4c-4.5-0.9-9.1-0.7-13.6-0.4
		c-7.3-0.2-14.6,0.4-22,0.2c-17.3-0.2-34.7,0.4-52-0.4C89.2,81.4,83.3,80.5,77.4,81.8z"/>
	<path class="st0" d="M79.8,147.4c9.4-0.4,18.8,0,28.2-0.1c4.6,0.1,9.3-0.4,13.8,0.4c2.4,0.6,1.6,3.5,2,5.3
		c-0.1,12.8,0.1,25.5-0.1,38.3c0.6,3.4-3.4,3.4-5.7,3.4c-11.3,0-22.6-0.1-33.9,0c-2.5-0.2-5.3,0.3-7.4-1.3
		c-0.9-8.8-0.1-17.7-0.4-26.5c0.2-5.8-0.4-11.6,0.3-17.4C76.7,148,78.5,147.4,79.8,147.4z"/>
</g>
<g id="_x23_60cadeff">
	<path class="st1" d="M79.3,12.4c4.5-1.1,9.2-0.7,13.7-0.8c12.3-0.1,24.7,0.8,37,0.1c7.7,0.8,15.3-0.4,23,0.1c21-0.1,42,0,63-0.3
		c3.7,0,7.9-0.1,10.7,2.6c2.7,2.1,1.6,5.9,1.9,8.9c-0.4,11.8,0.5,23.8-0.4,35.6c-3.8,3.6-9.4,2.8-14.2,2.8c-41-0.1-82,0-123,0
		c-4.5-0.1-9.2,0.6-13.5-1c-2.2-0.8-2.3-3.4-2.3-5.3C75.2,43.4,75.6,31.7,75,20C74.7,16.9,75.9,13.1,79.3,12.4 M77.5,16.8
		c0.2,12.4,0,24.8,0,37.2c0.2,1.4-0.2,3.3,1.4,3.9c3.2,1.1,6.7,0.5,10.1,0.6c44.8-0.1,89.7,0,134.5-0.1c0.6-0.6,1.2-1.3,1.8-1.9
		c0-13.2-0.1-26.5,0.1-39.7c-1.9-1.2-4.1-2.4-6.5-2.3c-41.3,0.1-82.6,0-124,0C89.2,14.9,82.8,13.7,77.5,16.8z"/>
	<path class="st1" d="M15.7,87c-0.2-2.4,0.9-4.5,2.2-6.4c12.4,0.1,24.7,0.1,37.1,0c2.8-0.1,5.6,0.5,8.4,1.2c0,14.4,0,28.8,0,43.2
		c-2.3,1.2-4.6,2.5-7.3,2.3c-12.7-0.1-25.3,0-38-0.1c-1.4-2.9-2.5-6.1-2.3-9.4C15.8,107.6,15.7,97.3,15.7,87z"/>
	<path class="st1" d="M77.4,81.8c5.8-1.3,11.8-0.4,17.6-0.8c17.3,0.8,34.7,0.2,52,0.4c7.3,0.2,14.6-0.4,22-0.2
		c4.5-0.2,9.1-0.4,13.6,0.4c0.5,2.8,1,5.6,0.9,8.4c-0.1,10-0.1,20,0,30c0.1,2.3-0.4,4.8-2.5,6.1c-4.6,1-9.4,0.3-14.1,0.4
		c-29.2,0.1-58.4-0.2-87.6,0.2c-2.1-2.4-3.3-5.5-2.8-8.7C77.7,105.9,75.2,93.7,77.4,81.8z"/>
</g>
<g id="_x23_02a5c2ff">
	<path class="st2" d="M77.5,16.8c5.3-3.1,11.7-2,17.6-2.1c41.3,0,82.6,0.1,124,0c2.4-0.2,4.5,1,6.5,2.3c-0.1,13.2,0,26.4-0.1,39.7
		c-0.6,0.6-1.2,1.3-1.8,1.9c-44.9,0.1-89.7,0-134.5,0.1C85.7,58.5,82.2,59,79,58c-1.6-0.7-1.3-2.6-1.4-3.9
		C77.5,41.6,77.7,29.2,77.5,16.8z"/>
</g>
</svg>
